X:1
T:Woolmer’s, LM
T:Woolmer’s, LM
T:Frederick Arthur Gore-Ouseley, 1861
T:Public Domain Courtesy of the Cyber Hymnal™
C:Frederick Arthur Gore-Ouseley, 1861
Z:Public Domain
Z:Courtesy of the Cyber Hymnal™
%%score ( 1 2 ) ( 3 4 )
L:1/8
Q:1/4=112
M:none
K:F
V:1 treble 
V:2 treble 
V:3 bass 
V:4 bass 
V:1
 [CF]2 | [DF]2 [DG]2 [CE]2 [CE]2 | [CF]2 [CG]2 [CA]2 [Cc]2 | [FB]2 [CG]2 [CA]2 [CF]2 | %4
 [CE]2 [=B,D]2 !fermata!C2 [^CE]2 x | [DF]2 [EG]2 [FA]2 [CF]2 | [FB]2 [_Ec]2 [Dd]2 [Gd]2 | %7
 [Ac]2 [GB]2 [FA]2 [Fc]2 | [DF]2 [EG]2 F2 |] %9
V:2
 x2 | x8 | x8 | x8 | x4 ^C2 x3 | x8 | x8 | x8 | x4 F2 |] %9
V:3
 [F,A,]2 | [D,A,]2 [B,,B,]2 [C,G,]2 [B,,G,]2 | [A,,F,]2 [C,E,]2 F,2 [E,G,]2 | %3
 [D,B,]2 [E,B,]2 [F,A,]2 [A,C]2 | G,3 z F, !fermata![C,E,]2 [A,,A,]2 | %5
 [D,A,]2 [C,C]2 [F,C]2 [_E,A,]2 | [D,B,]2 (G,A,) [B,,B,]2 [B,E]2 | [A,F]2 [E,C]2 [F,C]2 [A,,C]2 | %8
 [D,A,]2 [C,B,]2 [F,A,]2 |] %9
V:4
 x2 | x8 | x4 F,2 x2 | x8 | G,2 G,,2 x5 | x8 | x2 C,2 x4 | x8 | x6 |] %9

